X:1     %Music
T:Riddles
B:Singing Together, Spring 1978, BBC Publications
F:http://www.folkinfo.org/songs
L:1/16     %
K:F
A2 |c2F2 F2GA |G2C2 C2C2 |F3G A2c2 | d2 c4
w:If you will an-swer my ques-tions well, Sing nine-ty-nine and nine-ty,
 c2 |d2c2 G2(FG) |A2D2 C2C2 |F2A2 G2FE | D4 D4 |]
w: I'll take you off with_ me to dwell, And you the wea-ver-ing bon-ty. 

